X:1
T: Hielan Donald Kissed Kitty
C:
R:Strathspey
Q: 128
K:G
M:4/4
L:1/16
|:d2|BG3 G3A B3A Bg3|BG3 G3A Bd3 A3c|BG3 G3A B3A Bd3|eg3 dg3 Bg3 A2d2|
BG3 G3A B3A Bg3|BG3 G3A Bd3 A3c|BG3 G3A B3A Bd3|eg3 dg3 Bg3 A2:|
|:c2|Bd3 d2ef g3f ed3|Bd3 d2ef g3B A3c|Bd3 d2ef g3f ed3|eg3 dg3 Bg3 BA3|
Bd3 d2ef g3f ed3|Bd3 d2ef g3B A4|Bd3 d2ef g3f ed3|eg3 dg3 Bg3 A2:|
